X: 541
U:~=!turn!
M:C
L:1/8
K:D
(f/g/) | afdf afdf | eA A/A/A (=c3 e) | afdf afdf | egfe d2 (fg) |
afdf afdf | eA A/A/A (=c3 f) | afge fde^c | Agfe d2 d |]


